assets/icons/save-btn.svg

<svg width="24" height="24" viewBox="0 0 24 24" fill="none" xmlns="http://www.w3.org/2000/svg">
<path d="M18.8479 6.53431L16.9108 4.62026C16.5099 4.22174 15.9671 3.99865 15.4019 4.00001H6.14727C4.96306 4.00001 4 4.96306 4 6.14728V17.8527C4 19.0369 4.96306 20 6.14727 20H17.339C18.5232 20 19.4863 19.0369 19.4863 17.8527V8.06133C19.4863 7.49133 19.2541 6.93542 18.8479 6.53431ZM14.5785 5.40739V9.98844C14.5785 10.1865 14.4177 10.3463 14.2207 10.3463H9.37823C9.1812 10.3463 9.02035 10.1855 9.02035 9.98844V5.40739H14.5785ZM18.0789 17.8527C18.0789 18.2609 17.7472 18.5926 17.339 18.5926H6.14727C5.73913 18.5926 5.40739 18.2609 5.40739 17.8527V6.14728C5.40739 5.73914 5.73913 5.40739 6.14727 5.40739H7.61196V9.98844C7.61196 10.9626 8.40412 11.7537 9.37723 11.7537H14.2196C15.1938 11.7537 15.9849 10.9616 15.9849 9.98844V5.68485L17.8577 7.53557C17.9272 7.60442 17.9824 7.6863 18.0202 7.77651C18.058 7.86673 18.0776 7.96352 18.0779 8.06133V17.8527H18.0789Z" fill="#1A6DD8"/>
<path d="M13.0012 9.27067H11.9205C11.5314 9.27067 11.2168 8.95602 11.2168 8.56698C11.2168 8.17793 11.5314 7.86328 11.9205 7.86328H13.0012C13.3902 7.86328 13.7049 8.17793 13.7049 8.56698C13.7049 8.95602 13.3902 9.27067 13.0012 9.27067Z" fill="#1A6DD8"/>
</svg>

<svg xmlns="http://www.w3.org/2000/svg" width="24" height="24" fill="none" viewBox="0 0 24 24" data-c="1"><path fill="#1A6DD8" d="M18.848 6.534 16.91 4.62A2.13 2.13 0 0 0 15.4 4H6.148A2.15 2.15 0 0 0 4 6.147v11.706A2.15 2.15 0 0 0 6.147 20H17.34a2.15 2.15 0 0 0 2.147-2.147V8.06c0-.57-.232-1.126-.638-1.527m-4.27-1.127v4.581c0 .199-.16.358-.357.358H9.378a.36.36 0 0 1-.358-.358v-4.58zm3.5 12.446a.74.74 0 0 1-.739.74H6.147a.74.74 0 0 1-.74-.74V6.147a.74.74 0 0 1 .74-.74h1.465v4.581c0 .975.792 1.766 1.765 1.766h4.843c.974 0 1.765-.792 1.765-1.766V5.685l1.873 1.85a.74.74 0 0 1 .22.526z"/><path fill="#1A6DD8" d="M13.001 9.27h-1.08a.703.703 0 1 1 0-1.407H13a.703.703 0 1 1 0 1.408"/></svg>
